X:5
T:La Laguiolaise
C:Trad.
O:France:
A:Auvergne
M:3/8
L:1/8
Q:
K:C
e2g | e2g | fda | g2 e/f/ | g g/a/g/f/ | ece |1 d/e/fe | d3 :|2 d/e/f/d/B/d/ | c2B/c/ ||
ddc/d/ | eed/e/ | fed | g2e | g3/a/g/f/ | ece | d/e/fe | d2B/c/ | 
ddc/d/ | eed/e/ | fed | g2e | g3/a/g/f/ | ece | d/e/f/d/B/d/ | c3 :|
